!!!COM: Machaut, Guillaume de
!!!CDT: ~1300///-1377///
!!!OTL: De bont&eacute;, de valour
!!!OTL@EN: With goodness, worth...
!!!AGN: virelai (Abba)
**kern	**kern
*M6/8	*M6/8
*MM120	*MM120
=1-	=1-
2.a	8ddd
.	8ccc
.	8ddd
.	8bb-
.	4aa
=2	=2
2.b-	8bb-
.	4gg
.	4.aa
=3	=3
2.g	4.ee
.	8ff
.	4ee
=4	=4
2.a	8ff
.	4dd
.	4.ff#
=5	=5
[2.b-	8gg
.	4ff#
.	8gg
.	4aa
=6	=6
2.b-]	4.bb-
.	4.aa
=7	=7
2.a	8ddd
.	8ccc
.	8ddd
.	8bb-
.	4aa
=8	=8
2.b-	8bb-
.	4gg
.	4.aa
=9	=9
2.g	4.ee
.	8ff
.	4ee
=10	=10
[2.a	8ff
.	4dd
.	8ff#
.	4gg
=11	=11
2.a]	4.aa
.	4.gg
=12	=12
2.cc	8eee
.	4ddd
.	8ddd
.	4ccc
=13	=13
2.dd	4.ddd
.	8gg
.	4ddd
=14	=14
2.ee	8eee
.	4ddd
.	8ccc
.	4bb-
=15	=15
2.cc	8aa
.	4gg
.	8ff
.	4gg
=16	=16
2.a	4.aa
.	4r
.	8r
=17	=17
2.cc	8eee
.	4ddd
.	8ddd
.	4ccc
=18	=18
2.dd	4.ddd
.	8gg
.	4ddd
=19	=19
2.ee	8eee
.	4ddd
.	8ccc
.	4bb-
=20	=20
2.cc	8aa
.	4gg
.	8aa
.	4ff
=21	=21
2.g	4.gg
.	4r
.	8r
=22	=22
2.a	8ddd
.	8ccc
.	8ddd
.	8bb-
.	4aa
=23	=23
2.b-	8bb-
.	4gg
.	4.aa
=24	=24
2.g	4.ee
.	8ff
.	4ee
=25	=25
2.a	8ff
.	4dd
.	4.ff#
=26	=26
[2.b-	8gg
.	4ff#
.	8gg
.	4aa
=27	=27
2.b-]	4.bb-
.	4.aa
=28	=28
2.a	8ddd
.	8ccc
.	8ddd
.	8bb-
.	4aa
=29	=29
2.b-	8bb-
.	4gg
.	4.aa
=30	=30
2.g	4.ee
.	8ff
.	4ee
=31	=31
[2.a	8ff
.	4dd
.	8ff#
.	4gg
=32	=32
2.a]	4.aa
.	4.gg
*-	*-
!!!ENC: Craig Stuart Sapp
!!!END: 2004/03/14/
!!!ONB: language: French, dialect: Champagnois
